X:575
T:Miss Nancie Low
R:Reel
B:The Athole Collection
M:C|
L:1/8
K:F
d|cAfd cAFA|FGAB cdcf|a/g/f/e/ fdcA FA|GdcA F/F/F ~F:|
B|A/B/c Fc dBcA|BdcA G/G/G GB|A/B/c Fc dBcA|BgcA F/F/F ~FB|
A/B/c Fc dBcA|GdcA G/G/G GB|AcfA Bdgb|afce f/f/f ~f||

